static/logos/intercom-glyph-color.svg

<svg width="50" height="50" viewBox="0 0 50 50" fill="none" xmlns="http://www.w3.org/2000/svg">
<g clip-path="url(#clip0_1_2306)">
<path d="M43.2196 27.3937C43.2196 27.8376 43.0448 28.2631 42.7334 28.5769C42.422 28.8906 41.9998 29.067 41.5594 29.067C41.119 29.067 40.6967 28.8906 40.3854 28.5769C40.074 28.2631 39.8991 27.8376 39.8991 27.3937V12.4455C39.8991 12.0017 40.074 11.5761 40.3854 11.2624C40.6967 10.9486 41.119 10.7723 41.5594 10.7723C41.9998 10.7723 42.422 10.9486 42.7334 11.2624C43.0448 11.5761 43.2196 12.0017 43.2196 12.4455V27.3937ZM42.6432 37.7511C42.4238 37.9723 36.2496 43.1579 24.9301 43.1579C13.6107 43.1579 7.47766 38 7.21699 37.7786C7.05271 37.6391 6.91738 37.4681 6.81878 37.2758C6.72017 37.0832 6.66022 36.8731 6.64238 36.6572C6.62454 36.4415 6.64913 36.2242 6.71478 36.0179C6.78041 35.8118 6.88581 35.6205 7.02489 35.4555C7.31144 35.1214 7.71745 34.9151 8.15439 34.8812C8.59133 34.8476 9.02376 34.9895 9.35738 35.2758C9.45343 35.345 14.9691 39.8528 24.9164 39.8528C34.8638 39.8528 40.4205 35.3172 40.4755 35.2758C40.8129 34.9919 41.2467 34.852 41.6847 34.8856C42.1229 34.9192 42.5308 35.1236 42.8216 35.4555C43.1015 35.7847 43.2413 36.212 43.2105 36.6443C43.1797 37.0766 42.9808 37.4795 42.657 37.7648L42.6432 37.7511ZM6.62701 12.4455C6.65181 12.0003 6.85048 11.5831 7.17956 11.2852C7.50865 10.9872 7.9414 10.8326 8.38323 10.8552C8.79282 10.8787 9.1793 11.0541 9.46812 11.3478C9.75696 11.6414 9.92769 12.0325 9.94736 12.4455V27.3662C9.94736 27.8098 9.77245 28.2354 9.46111 28.5491C9.14976 28.8631 8.72749 29.0393 8.28718 29.0393C7.84688 29.0393 7.42461 28.8631 7.11325 28.5491C6.80192 28.2354 6.62701 27.8098 6.62701 27.3662V12.4455ZM14.9553 9.12672C14.9802 8.68155 15.1788 8.26439 15.5079 7.96642C15.837 7.66843 16.2697 7.51386 16.7116 7.53648C17.1212 7.55993 17.5076 7.73539 17.7965 8.02904C18.0853 8.32269 18.256 8.71371 18.2757 9.12672V31.2517C18.2757 31.6956 18.1008 32.1212 17.7895 32.4349C17.4781 32.7487 17.0558 32.9249 16.6155 32.9249C16.1752 32.9249 15.7529 32.7487 15.4416 32.4349C15.1303 32.1212 14.9553 31.6956 14.9553 31.2517V9.12672ZM23.3249 8.29703C23.3249 7.85328 23.4998 7.42769 23.8111 7.11391C24.1225 6.80011 24.5448 6.62382 24.9849 6.62382C25.4253 6.62382 25.8476 6.80011 26.159 7.11391C26.4703 7.42769 26.6452 7.85328 26.6452 8.29703V32.3581C26.6452 32.8017 26.4703 33.2273 26.159 33.5413C25.8476 33.855 25.4253 34.0312 24.9849 34.0312C24.5448 34.0312 24.1225 33.855 23.8111 33.5413C23.4998 33.2273 23.3249 32.8017 23.3249 32.3581V8.29703ZM31.5572 9.12672C31.5572 8.68297 31.7321 8.25738 32.0434 7.94358C32.3548 7.6298 32.7771 7.45352 33.2172 7.45352C33.6576 7.45352 34.0799 7.6298 34.3913 7.94358C34.7026 8.25738 34.8775 8.68297 34.8775 9.12672V31.2517C34.8775 31.6956 34.7026 32.1212 34.3913 32.4349C34.0799 32.7487 33.6576 32.9249 33.2172 32.9249C32.7771 32.9249 32.3548 32.7487 32.0434 32.4349C31.7321 32.1212 31.5572 31.6956 31.5572 31.2517V9.12672ZM43.6723 0.000138086H6.24282C5.42725 -0.00532555 4.61862 0.151396 3.86325 0.461327C3.10786 0.77126 2.42055 1.22832 1.84066 1.80633C1.26078 2.38434 0.799712 3.07194 0.483865 3.8298C0.168017 4.58764 0.00359076 5.40083 0 6.22282V43.559C0.00359076 44.3808 0.168017 45.1941 0.483865 45.952C0.799712 46.7096 1.26078 47.3974 1.84066 47.9753C2.42055 48.5533 3.10786 49.0105 3.86325 49.3203C4.61862 49.6303 5.42725 49.7869 6.24282 49.7814H43.6723C44.4867 49.7869 45.2943 49.6308 46.0487 49.3216C46.8033 49.0127 47.49 48.5568 48.0696 47.9801C48.6493 47.4037 49.1107 46.7177 49.4273 45.9614C49.7441 45.2052 49.9098 44.3934 49.9151 43.5727V6.22282C49.9116 5.40201 49.7476 4.58996 49.4325 3.83301C49.1177 3.07607 48.6579 2.38908 48.0793 1.81124C47.5009 1.23341 46.8153 0.776065 46.0614 0.465317C45.3076 0.154566 44.5004 -0.00350183 43.686 0.000138086" fill="#081D34"/>
</g>
<defs>
<clipPath id="clip0_1_2306">
<rect width="50" height="49.7817" fill="white"/>
</clipPath>
</defs>
</svg>

<svg xmlns="http://www.w3.org/2000/svg" width="64" height="64" fill="none" viewBox="0 0 50 50"><g clip-path="url(#a)"><path fill="#081D34" d="M43.22 27.394c0 .444-.175.87-.487 1.183a1.654 1.654 0 0 1-2.348 0 1.68 1.68 0 0 1-.486-1.183V12.446c0-.444.175-.87.486-1.184a1.654 1.654 0 0 1 2.348 0c.312.314.487.74.487 1.183v14.949Zm-.577 10.357c-.22.221-6.393 5.407-17.713 5.407S7.478 38 7.217 37.778a1.643 1.643 0 0 1-.575-1.12 1.658 1.658 0 0 1 .383-1.203 1.652 1.652 0 0 1 2.332-.18c.096.07 5.612 4.578 15.56 4.578 9.947 0 15.503-4.536 15.558-4.577a1.678 1.678 0 0 1 2.347.18 1.654 1.654 0 0 1-.165 2.309l-.014-.014ZM6.627 12.446c.025-.446.223-.863.553-1.16.329-.299.761-.453 1.203-.43.41.023.796.198 1.085.492.289.293.46.684.48 1.097v14.921c0 .444-.176.87-.487 1.183a1.653 1.653 0 0 1-2.348 0 1.68 1.68 0 0 1-.486-1.183v-14.92Zm8.328-3.32c.025-.444.224-.862.553-1.16.329-.298.762-.452 1.204-.43.41.024.796.2 1.085.493.288.294.459.685.479 1.098v22.125c0 .444-.175.87-.486 1.183a1.654 1.654 0 0 1-2.348 0 1.68 1.68 0 0 1-.487-1.183V9.127Zm8.37-.829c0-.444.175-.87.486-1.183a1.654 1.654 0 0 1 2.348 0c.311.314.486.74.486 1.183v24.061c0 .444-.175.87-.486 1.183a1.654 1.654 0 0 1-2.348 0 1.68 1.68 0 0 1-.486-1.183V8.297Zm8.232.83c0-.444.175-.87.486-1.183a1.654 1.654 0 0 1 2.348 0c.312.313.486.739.486 1.183v22.125c0 .444-.174.87-.486 1.183a1.654 1.654 0 0 1-2.348 0 1.68 1.68 0 0 1-.486-1.183V9.127ZM43.672 0H6.242a6.16 6.16 0 0 0-2.379.461 6.198 6.198 0 0 0-2.022 1.345A6.253 6.253 0 0 0 .484 3.83 6.293 6.293 0 0 0 0 6.223v37.336c.004.822.168 1.635.484 2.393a6.254 6.254 0 0 0 1.357 2.023 6.196 6.196 0 0 0 2.022 1.345c.756.31 1.564.467 2.38.461h37.43a6.19 6.19 0 0 0 4.397-1.801 6.288 6.288 0 0 0 1.846-4.407V6.223a6.289 6.289 0 0 0-1.837-4.412A6.197 6.197 0 0 0 46.061.465 6.16 6.16 0 0 0 43.686 0"/></g><defs><clipPath id="a"><path fill="#fff" d="M0 0h50v49.782H0z"/></clipPath></defs></svg>
